svg/free/input-hdmi.svg

<svg version="1.1" xmlns="http://www.w3.org/2000/svg" width="24" height="24" viewBox="0 0 24 24">
<title>input-hdmi</title>
<path d="M18.75 5.625v-4.875h-13.5v4.875h-1.5v6.164l3.375 7.364v4.098h9.75v-4.098l3.375-7.364v-6.164zM6.75 2.25h10.5v3.375h-1.5v-1.875h-1.5v1.875h-1.5v-1.875h-1.5v1.875h-1.5v-1.875h-1.5v1.875h-1.5zM18.75 11.461l-3.375 7.364v2.925h-6.75v-2.925l-3.375-7.364v-4.336h13.5z"></path>
</svg>

<svg xmlns="http://www.w3.org/2000/svg" width="24" height="24" viewBox="0 0 24 24"><path d="M18.75 5.625V.75H5.25v4.875h-1.5v6.164l3.375 7.364v4.098h9.75v-4.098l3.375-7.364V5.625zm-12-3.375h10.5v3.375h-1.5V3.75h-1.5v1.875h-1.5V3.75h-1.5v1.875h-1.5V3.75h-1.5v1.875h-1.5zm12 9.211l-3.375 7.364v2.925h-6.75v-2.925L5.25 11.461V7.125h13.5z"/></svg>
